X: 31168
T: Paddy Fahey's
R: jig
M: 6/8
K: Dmajor
|:A|DFA d2 e|dcA G2 G|AFD =cBc|edc BcA|
DFA d2 e|dcA GAB|A2 d AGE|EDC D2:|
|:e|dcd fed|cAB =c2 B|=cBc edc|BGG GFG|
Add fdd|=cAA GFG|Adc AGE|EDC D2:|

